austria/municipalities/70524.svg

<?xml version="1.0" encoding="UTF-8" standalone="no"?>
<svg
   height="555"
   width="470"
   version="1.1"
   id="svg120"
   sodipodi:docname="AUT Scheffau am Wilden Kaiser COA.svg"
   inkscape:version="1.2 (dc2aedaf03, 2022-05-15)"
   viewBox="0 0 470 555"
   xml:space="preserve"
   xmlns:inkscape="http://www.inkscape.org/namespaces/inkscape"
   xmlns:sodipodi="http://sodipodi.sourceforge.net/DTD/sodipodi-0.dtd"
   xmlns="http://www.w3.org/2000/svg"
   xmlns:svg="http://www.w3.org/2000/svg"
   xmlns:rdf="http://www.w3.org/1999/02/22-rdf-syntax-ns#"
   xmlns:cc="http://creativecommons.org/ns#"
   xmlns:dc="http://purl.org/dc/elements/1.1/"><title
     id="title8379">Wappen der Gemeinde Scheffau am Wilden Kaiser</title><metadata
     id="metadata126"><rdf:RDF><cc:Work
         rdf:about=""><dc:format>image/svg+xml</dc:format><dc:type
           rdf:resource="http://purl.org/dc/dcmitype/StillImage" /><dc:title>Wappen der Gemeinde Scheffau am Wilden Kaiser</dc:title><dc:contributor><cc:Agent><dc:title>Simon Eller</dc:title></cc:Agent></dc:contributor><dc:date>15.04.2023</dc:date><dc:creator><cc:Agent><dc:title>Simon Eller</dc:title></cc:Agent></dc:creator></cc:Work></rdf:RDF></metadata><defs
     id="defs124" /><sodipodi:namedview
     pagecolor="#ffffff"
     bordercolor="#666666"
     borderopacity="1"
     objecttolerance="10"
     gridtolerance="10"
     guidetolerance="10"
     inkscape:pageopacity="0"
     inkscape:pageshadow="2"
     inkscape:window-width="1920"
     inkscape:window-height="1009"
     id="namedview122"
     showgrid="false"
     inkscape:zoom="0.85045048"
     inkscape:cx="551.47244"
     inkscape:cy="278.67584"
     inkscape:window-x="-8"
     inkscape:window-y="-8"
     inkscape:window-maximized="1"
     inkscape:current-layer="svg120"
     inkscape:showpageshadow="0"
     inkscape:pagecheckerboard="0"
     inkscape:deskcolor="#d1d1d1"
     showguides="true" /><path
     id="path2"
     style="fill:#078930;stroke:none;opacity:1;stroke-linecap:square;stroke-linejoin:miter"
     d="M 465 170.00195 L 48.111328 461.9082 C 89.351955 515.52134 156.71612 550 235 550 C 364.99987 550 465 454.99988 465 335 L 465 170.00195 z " /><path
     id="path2948"
     style="fill:#ffffff;stroke:none;opacity:1;stroke-linecap:square;stroke-linejoin:miter"
     d="M 5 5 L 5 335 C 5 382.73784 20.866895 426.49023 48.111328 461.9082 L 465 170 L 465 5 L 5 5 z " /><path
     style="opacity:1;fill:#000000;stroke:#000000;stroke-width:1px;stroke-linecap:butt;stroke-linejoin:miter;stroke-opacity:1"
     d="m 82.833175,196.01426 c -17.777244,31.42914 -14.561226,76.54981 35.302815,82.92719 26.34863,3.36986 42.87961,-23.43088 42.54166,-21.81564 0,0 2.82954,27.64742 13.46149,45.37949 6.95026,11.59172 19.66406,26.64589 34.69554,35.755 19.49742,-16.09333 27.77562,-54.20019 29.67226,-68.07975 4.84153,-35.4302 2.17176,-54.75713 2.17176,-54.75713 21.59091,29.49201 40.01629,27.09084 52.37926,23.76699 25.33562,-6.81163 36.73888,-30.67017 32.87032,-57.72652 -5.23738,16.64707 -31.00631,24.25736 -45.91241,3.80456 -10.89779,-14.95296 -11.49575,-31.26704 -12.18514,-37.99792 15.56823,16.78553 30.43161,14.95476 41.0243,5.1385 10.82827,-10.03456 10.79305,-31.08577 -4.02479,-42.7616 -1.16129,14.94941 -13.8434,16.86808 -21.77134,13.58878 -13.01002,-5.38143 -17.80435,-29.373282 -24.89377,-50.588294 10.38808,8.804543 24.34099,8.290431 31.01342,-0.384601 5.06895,-6.590296 9.19745,-21.561789 -7.00531,-31.106556 0.78543,30.077724 -19.75201,19.337876 -46.45966,3.330681 -14.60131,-8.751272 -34.21588,-16.361946 -54.87327,-16.11422 -19.18295,0.230045 -36.33615,5.698941 -54.56389,13.71892 -5.48998,20.968002 2.15897,37.196617 19.38168,49.183016 29.34929,20.426064 31.12775,48.000924 27.65488,73.135044 -5.14959,37.26899 -34.98434,64.88745 -61.60879,64.81026 -14.942249,-0.0433 -26.983035,-8.39031 -28.871015,-33.2062 z"
     id="path490"
     sodipodi:nodetypes="cscscscscscscscscsscsssc" /><path
     id="path824"
     style="fill:#fcdd09;stroke:#000000;stroke-width:1.5;stroke-linecap:butt;stroke-linejoin:miter;stroke-opacity:1;stroke-dasharray:none"
     d="M 99.933594 37.769531 C 87.577898 37.738853 78.823951 41.292829 72.6875 46.603516 C 57.292351 59.926983 59.428261 86.446142 68.199219 113.32227 C 81.822634 96.843249 95.348051 90.888365 108.8418 91.59375 C 125.71446 92.475767 143.41805 102.9879 158.66602 121.48047 C 147.45405 120.66022 140.83676 120.31092 133.85938 121.26367 C 117.3051 123.5241 108.34127 130.70232 100.44922 138.95508 C 131.39311 132.55753 154.96536 144.46789 169.28516 179.35352 C 169.40013 179.36342 169.64812 179.35797 169.7832 179.36719 C 171.38351 174.59827 172.59505 169.60251 173.3125 164.41016 C 176.78537 139.27606 175.00746 111.70143 145.6582 91.275391 C 128.43551 79.289004 120.78737 63.059778 126.27734 42.091797 C 116.05764 39.096083 107.34701 37.787938 99.933594 37.769531 z " /><path
     style="fill:#000000;stroke:#000000;stroke-width:1px;stroke-linecap:round;stroke-linejoin:round;stroke-opacity:1"
     d="m 158.66602,121.48047 c -13.73484,-11.91985 -56.1237,-33.095924 -77.183951,-0.50454 -10.628852,16.44847 -26.398528,22.9688 -26.398528,22.9688 15.41607,5.73559 27.6215,-2.18464 42.92359,-18.70762 15.298539,-16.51915 41.560039,-7.89885 60.658889,-3.75664 z"
     id="path1400"
     sodipodi:nodetypes="cscsc" /><path
     style="fill:none;stroke:#000000;stroke-width:1.5;stroke-linecap:butt;stroke-linejoin:miter;stroke-opacity:1;stroke-dasharray:none"
     d="M 48.111525,461.90846 465,170"
     id="path2978" /><path
     id="path365"
     style="opacity:1;fill:#ffffff;stroke:none;stroke-width:1px;stroke-linecap:butt;stroke-linejoin:miter;stroke-opacity:1;fill-opacity:1"
     d="M 191.13867 48.623047 C 190.9199 48.623526 190.69979 48.625635 190.48047 48.626953 A 11.572179 11.572179 0 0 1 190.95703 51.884766 A 11.572179 11.572179 0 0 1 179.38477 63.457031 A 11.572179 11.572179 0 0 1 167.8125 51.884766 A 11.572179 11.572179 0 0 1 168.08008 49.849609 C 156.72228 50.86789 145.55415 52.272046 135.88477 53.060547 L 135.88477 59.123047 L 159.62109 59.123047 C 159.41775 59.084317 165.1811 75.088568 178.6582 75.869141 C 192.01596 76.6428 198.36993 60.481366 198.30078 60.488281 L 232.91016 60.488281 C 224.16798 51.221365 208.52662 48.58493 191.13867 48.623047 z " /><g
     stroke="#000000"
     id="g1420"
     style="fill:none;stroke:#000000;opacity:1"><path
       d="M 5,5 H 465 V 335 C 465,455 365,550 235,550 105,550 5,455 5,335 V 5"
       id="path1418"
       stroke-width="4"
       fill="#ffffff"
       style="stroke-linecap:square;stroke-linejoin:miter;fill:none;stroke:#000000" /></g></svg>

<svg height="555" width="470" xml:space="preserve" xmlns="http://www.w3.org/2000/svg"><path style="fill:#078930;stroke:none;opacity:1;stroke-linecap:square;stroke-linejoin:miter" d="M465 170.002 48.111 461.908C89.352 515.521 156.716 550 235 550c130 0 230-95 230-215V170.002z"/><path style="fill:#fff;stroke:none;opacity:1;stroke-linecap:square;stroke-linejoin:miter" d="M5 5v330c0 47.738 15.867 91.49 43.111 126.908L465 170V5H5z"/><path style="opacity:1;fill:#000;stroke:#000;stroke-width:1px;stroke-linecap:butt;stroke-linejoin:miter;stroke-opacity:1" d="M82.833 196.014c-17.777 31.43-14.561 76.55 35.303 82.927 26.349 3.37 42.88-23.43 42.542-21.815 0 0 2.83 27.647 13.461 45.38 6.95 11.591 19.664 26.645 34.696 35.754 19.497-16.093 27.775-54.2 29.672-68.08 4.841-35.43 2.172-54.757 2.172-54.757 21.59 29.492 40.016 27.091 52.379 23.767 25.336-6.811 36.739-30.67 32.87-57.726-5.237 16.647-31.006 24.257-45.912 3.804-10.898-14.953-11.496-31.267-12.185-37.997 15.568 16.785 30.431 14.954 41.024 5.138 10.828-10.035 10.793-31.086-4.025-42.762-1.161 14.95-13.843 16.869-21.771 13.59-13.01-5.382-17.804-29.374-24.894-50.59 10.388 8.805 24.341 8.291 31.014-.384 5.068-6.59 9.197-21.561-7.006-31.106.786 30.077-19.752 19.338-46.46 3.33-14.6-8.75-34.215-16.362-54.873-16.114-19.183.23-36.336 5.7-54.564 13.72-5.49 20.967 2.16 37.196 19.382 49.182 29.35 20.426 31.128 48.001 27.655 73.135-5.15 37.27-34.984 64.888-61.609 64.81-14.942-.043-26.983-8.39-28.87-33.206z"/><path style="fill:#fcdd09;stroke:#000;stroke-width:1.5;stroke-linecap:butt;stroke-linejoin:miter;stroke-opacity:1;stroke-dasharray:none" d="M99.934 37.77c-12.356-.031-21.11 3.523-27.246 8.834-15.396 13.323-13.26 39.842-4.489 66.718 13.624-16.479 27.15-22.434 40.643-21.728 16.872.882 34.576 11.394 49.824 29.886-11.212-.82-17.83-1.17-24.807-.216-16.554 2.26-25.518 9.438-33.41 17.691 30.944-6.397 54.516 5.513 68.836 40.399.115.01.363.004.498.013a82.473 82.473 0 0 0 3.53-14.957c3.472-25.134 1.694-52.709-27.655-73.135-17.222-11.986-24.87-28.215-19.38-49.183-10.22-2.996-18.931-4.304-26.344-4.322z"/><path style="fill:#000;stroke:#000;stroke-width:1px;stroke-linecap:round;stroke-linejoin:round;stroke-opacity:1" d="M158.666 121.48c-13.735-11.92-56.124-33.095-77.184-.504-10.629 16.448-26.398 22.969-26.398 22.969 15.416 5.735 27.621-2.185 42.923-18.708 15.299-16.519 41.56-7.899 60.659-3.757z"/><path style="fill:none;stroke:#000;stroke-width:1.5;stroke-linecap:butt;stroke-linejoin:miter;stroke-opacity:1;stroke-dasharray:none" d="M48.112 461.908 465 170"/><path style="opacity:1;fill:#fff;stroke:none;stroke-width:1px;stroke-linecap:butt;stroke-linejoin:miter;stroke-opacity:1;fill-opacity:1" d="M191.139 48.623c-.22 0-.44.003-.659.004a11.572 11.572 0 0 1 .477 3.258 11.572 11.572 0 0 1-11.572 11.572 11.572 11.572 0 0 1-11.572-11.572 11.572 11.572 0 0 1 .267-2.035c-11.358 1.018-22.526 2.422-32.195 3.21v6.063h23.736c-.203-.039 5.56 15.966 19.037 16.746 13.358.774 19.712-15.388 19.643-15.38h34.61c-8.743-9.268-24.384-11.904-41.772-11.866z"/><g style="fill:none;stroke:#000;opacity:1"><path d="M5 5h460v330c0 120-100 215-230 215S5 455 5 335V5" stroke-width="4" fill="#fff" style="stroke-linecap:square;stroke-linejoin:miter;fill:none;stroke:#000" stroke="#000"/></g></svg>
